!!!OTL: 187. Blauer, blauer Fingerhut.
!!!ARE: Europa, Mitteleuropa, Deutschland, Oberdiebach am Rhein
!!!SCT: K2187
!!!TXL: @@DE
!!!YEM: Copyright 1995, estate of Helmut Schaffrath.
**kern	**text
*clefG2	*
*M2/4	*
*k[b-e-a-]	*
*E-:	*
=1	=1
{8b-	Blau-
8b-	-er,
8cc	blau-
8cc	-er
=2	=2
8b-	Fin'-
8b-	-ger-
4g}	-hut,
=3	=3
{8b-	hätt'n
8b-	wir
8cc	Geld,
8cc	ſo
=4	=4
8b-	wär
8b-	es
4g}	gut,
=5	=5
{8ee-	Blu-
8g	-men
8g	al-
8g	-le
=6	=6
4g	Ta-
4f}	-ge.
=7||	=7||
{8b-	Jungfrau,
8b-	.
8cc	ſie
8cc	muß
=8	=8
8b-	ſtil-
8b-	-le
4g}	ſtehn,
=9	=9
{8b-	muß
8b-	ſich
8cc	in
8cc	dem
=10	=10
8b-	Kranʒ
8b-	um-
4g}	-ſehn.
=11	=11
{8b-	Jungfer
8b-	.
8ee-	ſie
8b-	muß
=12	=12
4b-/	tan-
4g}	-ʒen
=13	=13
{8b-	in
8b-	dem
8ee-	ſchö-
8b-	-nen
=14	=14
4b-/	Kran-
4g}	-ʒe!
=15	=15
{8ee-	Jungfrau,
8g	.
8cc	ſie
8b-	muß
=16	=16
8b-/	ſtil-
8b-/	-le
4g}	ſtehn
=17	=17
{8ee-	und
8g	ſich
8g	ein'
8g	er-
=18	=18
4g	-wäh-
4f}	-len!
=19	=19
{8b-	Schäf-
8b-	-lein,
8cc	Schäf-
8cc	-lein
=20	=20
8b-	knie-
8b-	-e
4g}	dich,
=21	=21
{8ee-	ſchon
8g	in
8g	frü-
8g	-hen
=22	=22
4g	Jah-
4f}	-ren,
=23	=23
{8b-	eh'
8b-	wir
8cc	von
8cc	dir
=24	=24
8b-	ſchei-
8b-	-den
4g}	gehn,
=25	=25
{8ee-	froh
8g	und
8cc	ſpät
8b-	ge-
=26	=26
4g	-la-
4e-}	-den.
==	==
!!!AGN: Kinder - Lied, Reigen, Tanz - Spiel, Brautwerbung
!!!ONB: ESAC (Essen Associative Code) Database: KINDER
!!!AMT: simple duple
!!!AIN: vox
!!!EED: Helmut Schaffrath
!!!EEV: 1.0
!!Aus Oberdiebach am Rhein 1896. Schlussreim sinnlos.
!!!GTL: Zweites Buch. Kinderspiel: 2. Reigen und Tanzspiele. / D. Ringelreigen mit Wahl (Brautwerbung).
!!!URL-scan: https://archive.org/details/DeutschesKinderliedUndKinderspiel/page/475/mode/1up
!!!ENC: Anna Maria Matuszewska
!!!EEV: 2024/03/09
*-	*-
